X:160
T: Lassies of Limerick
M: 6/8
L: 1/8
S: Luke O'Malley vol 1
Z: B.Black
R: jig
K: G
dcA GFG | AGF G2 e | dcA GFG | Ade fde |
dcA GFG | AGF G2 B | Ade fgf | edc dcA :|
def gfg | agf g2 f | def gfe | fed ecA |
|1 def gfg | agf g2 f | Ade fgf | edc dcA :|
|2 def gfg | agf g2 a | bag agf | ded cAG ||
